!!!OTL: ICH HAB' DIE NACHT GETRAEUMET
!!!ARE: Europa, Mitteleuropa, Deutschland
!!!SCT: Z0052
!!!YEM: Copyright 1995, estate of Helmut Schaffrath.
**kern
*ICvox
*Ivox
*M6/8
*k[b-e-]
*g:
{8d
=1
4g
8a
8b-
8a
8g
=2
4.dd
4dd}
{8cc
=3
8.b-
16a
8g
4f#
8g
=4
4a
4.r}
{8g
=5
4dd
8dd
4b-
8g
=6
4.gg
4ee-}
{8cc
=7
8.b-
16a
8g
8.a
16g
8f#
=8
4g
4.r}
==
!!!AGN: Sagen - Lied, Romanze, Tod
!!!ONB: ESAC (Essen Associative Code) Database: ZUCCAL
!!!AMT: compound duple
!!!AIN: vox
!!!EED: Helmut Schaffrath
!!!EEV: 1.0
*-
